src/theme/images/Flags/Persan.svg

<svg fill="none" height="16" viewBox="0 0 20 16" width="20" xmlns="http://www.w3.org/2000/svg" xmlns:xlink="http://www.w3.org/1999/xlink"><mask id="a" height="16" maskUnits="userSpaceOnUse" width="20" x="0" y="0"><rect fill="#fff" height="14.5" rx="1.75" stroke="#fff" stroke-width=".5" width="19.5" x=".25" y=".75"/></mask><mask id="b" fill="#fff"><path clip-rule="evenodd" d="m9.03808 6.89062c-.2868.27435-.46679.66968-.46679 1.10915 0 .82843.63959 1.5 1.42857 1.5.78894 0 1.42854-.67157 1.42854-1.5 0-.43118-.1732-.81986-.4506-1.09348" fill="#fff" fill-rule="evenodd"/></mask><rect fill="#fff" height="14.5" rx="1.75" stroke="#f5f5f5" stroke-width=".5" width="19.5" x=".25" y=".75"/><g mask="url(#a)"><g clip-rule="evenodd" fill-rule="evenodd"><path d="m0 5.5h20v-5h-20z" fill="#38bb56"/><path d="m0 15.5h20v-5h-20z" fill="#de1b27"/><path d="m1.28548 4.5c-.18409 0-.333332.14924-.333332.33333v.33334c0 .18409.149242.33333.333332.33333h.28572c.18409 0 .33333-.14924.33333-.33333v-.33334c0-.18409-.14924-.33333-.33333-.33333zm1.905 0c-.1841 0-.33334.14924-.33334.33333v.33334c0 .18409.14924.33333.33334.33333h.28571c.1841 0 .33333-.14924.33333-.33333v-.33334c0-.18409-.14923-.33333-.33333-.33333zm1.57096.33333c0-.18409.14924-.33333.33333-.33333h.28572c.18409 0 .33333.14924.33333.33333v.33334c0 .18409-.14924.33333-.33333.33333h-.28572c-.18409 0-.33333-.14924-.33333-.33333zm2.23833-.33333c-.1841 0-.33334.14924-.33334.33333v.33334c0 .18409.14924.33333.33334.33333h.28571c.1841 0 .33334-.14924.33334-.33333v-.33334c0-.18409-.14924-.33333-.33334-.33333zm1.57166.33333c0-.18409.14924-.33333.33333-.33333h.28572c.18409 0 .33333.14924.33333.33333v.33334c0 .18409-.14924.33333-.33333.33333h-.28572c-.18409 0-.33333-.14924-.33333-.33333zm2.23767-.33333c-.1841 0-.3334.14924-.3334.33333v.33334c0 .18409.1493.33333.3334.33333h.2857c.1841 0 .3333-.14924.3333-.33333v-.33334c0-.18409-.1492-.33333-.3333-.33333zm1.5716.33333c0-.18409.1493-.33333.3334-.33333h.2857c.1841 0 .3333.14924.3333.33333v.33334c0 .18409-.1492.33333-.3333.33333h-.2857c-.1841 0-.3334-.14924-.3334-.33333zm2.2383-.33333c-.184 0-.3333.14924-.3333.33333v.33334c0 .18409.1493.33333.3333.33333h.2858c.1841 0 .3333-.14924.3333-.33333v-.33334c0-.18409-.1492-.33333-.3333-.33333zm1.571.33333c0-.18409.1492-.33333.3333-.33333h.2858c.1841 0 .3333.14924.3333.33333v.33334c0 .18409-.1492.33333-.3333.33333h-.2858c-.1841 0-.3333-.14924-.3333-.33333zm2.2383-.33333c-.1841 0-.3333.14924-.3333.33333v.33334c0 .18409.1492.33333.3333.33333h.2858c.184 0 .3333-.14924.3333-.33333v-.33334c0-.18409-.1493-.33333-.3333-.33333zm-17.476152 6.3331c0-.1841.149242-.3333.333332-.3333h.28572c.18409 0 .33333.1492.33333.3333v.3333c0 .1841-.14924.3334-.33333.3334h-.28572c-.18409 0-.333332-.1493-.333332-.3334zm2.238612-.3333c-.1841 0-.33334.1492-.33334.3333v.3333c0 .1841.14924.3334.33334.3334h.28571c.18409 0 .33333-.1493.33333-.3334v-.3333c0-.1841-.14924-.3333-.33333-.3333zm1.57096.3333c0-.1841.14924-.3333.33333-.3333h.28572c.18409 0 .33333.1492.33333.3333v.3333c0 .1841-.14924.3334-.33333.3334h-.28572c-.18409 0-.33333-.1493-.33333-.3334zm2.23763-.3333c-.1841 0-.33333.1492-.33333.3333v.3333c0 .1841.14923.3334.33333.3334h.28571c.1841 0 .33334-.1493.33334-.3334v-.3333c0-.1841-.14924-.3333-.33334-.3333zm1.57194.3333c0-.1841.14924-.3333.33333-.3333h.28572c.18409 0 .33333.1492.33333.3333v.3333c0 .1841-.14924.3334-.33333.3334h-.28572c-.18409 0-.33333-.1493-.33333-.3334zm2.23761-.3333c-.1841 0-.3333.1492-.3333.3333v.3333c0 .1841.1492.3334.3333.3334h.2857c.1841 0 .3334-.1493.3334-.3334v-.3333c0-.1841-.1493-.3333-.3334-.3333zm1.572.3333c0-.1841.1492-.3333.3333-.3333h.2857c.1841 0 .3333.1492.3333.3333v.3333c0 .1841-.1492.3334-.3333.3334h-.2857c-.1841 0-.3333-.1493-.3333-.3334zm2.2386-.3333c-.1841 0-.3334.1492-.3334.3333v.3333c0 .1841.1493.3334.3334.3334h.2857c.1841 0 .3333-.1493.3333-.3334v-.3333c0-.1841-.1492-.3333-.3333-.3333zm1.5709.3333c0-.1841.1493-.3333.3334-.3333h.2857c.1841 0 .3333.1492.3333.3333v.3333c0 .1841-.1492.3334-.3333.3334h-.2857c-.1841 0-.3334-.1493-.3334-.3334zm2.2377-.3333c-.1841 0-.3334.1492-.3334.3333v.3333c0 .1841.1493.3334.3334.3334h.2857c.1841 0 .3333-.1493.3333-.3334v-.3333c0-.1841-.1492-.3333-.3333-.3333z" fill="#fff" fill-opacity=".5"/></g><path d="m8.57726 6.40888c-.41673.39862-.67264.96733-.67264 1.59089h1.33334c0-.25538.10407-.47733.26095-.6274zm-.67264 1.59089c0 1.16559.90779 2.16663 2.09524 2.16663v-1.3333c-.39051 0-.7619-.34207-.7619-.83333zm2.09524 2.16663c1.18744 0 2.09524-1.00104 2.09524-2.16663h-1.3333c0 .49126-.3714.83333-.76194.83333zm2.09524-2.16663c0-.61179-.2464-1.17078-.6492-1.56812l-.9363.94927c.152.14991.2522.36829.2522.61885z" fill="#d80915" mask="url(#b)"/><rect fill="#d80915" height="2" rx=".47619" width=".952381" x="9.52344" y="7.5"/></g></svg>

<svg width="20" height="16" viewBox="0 0 20 16" fill="none" xmlns="http://www.w3.org/2000/svg">
<rect x="0.25" y="0.75" width="19.5" height="14.5" rx="1.75" fill="white" stroke="#F5F5F5" stroke-width="0.5"/>
<mask id="mask0" mask-type="alpha" maskUnits="userSpaceOnUse" x="0" y="0" width="20" height="16">
<rect x="0.25" y="0.75" width="19.5" height="14.5" rx="1.75" fill="white" stroke="white" stroke-width="0.5"/>
</mask>
<g mask="url(#mask0)">
<path fill-rule="evenodd" clip-rule="evenodd" d="M0 5.5H20V0.5H0V5.5Z" fill="#38BB56"/>
<path fill-rule="evenodd" clip-rule="evenodd" d="M0 15.5H20V10.5H0V15.5Z" fill="#DE1B27"/>
<path fill-rule="evenodd" clip-rule="evenodd" d="M1.28548 4.5C1.10139 4.5 0.952148 4.64924 0.952148 4.83333V5.16667C0.952148 5.35076 1.10139 5.5 1.28548 5.5H1.5712C1.75529 5.5 1.90453 5.35076 1.90453 5.16667V4.83333C1.90453 4.64924 1.75529 4.5 1.5712 4.5H1.28548ZM3.19048 4.5C3.00638 4.5 2.85714 4.64924 2.85714 4.83333V5.16667C2.85714 5.35076 3.00638 5.5 3.19048 5.5H3.47619C3.66029 5.5 3.80952 5.35076 3.80952 5.16667V4.83333C3.80952 4.64924 3.66029 4.5 3.47619 4.5H3.19048ZM4.76144 4.83333C4.76144 4.64924 4.91068 4.5 5.09477 4.5H5.38049C5.56458 4.5 5.71382 4.64924 5.71382 4.83333V5.16667C5.71382 5.35076 5.56458 5.5 5.38049 5.5H5.09477C4.91068 5.5 4.76144 5.35076 4.76144 5.16667V4.83333ZM6.99977 4.5C6.81567 4.5 6.66643 4.64924 6.66643 4.83333V5.16667C6.66643 5.35076 6.81567 5.5 6.99977 5.5H7.28548C7.46958 5.5 7.61882 5.35076 7.61882 5.16667V4.83333C7.61882 4.64924 7.46958 4.5 7.28548 4.5H6.99977ZM8.57143 4.83333C8.57143 4.64924 8.72067 4.5 8.90476 4.5H9.19048C9.37457 4.5 9.52381 4.64924 9.52381 4.83333V5.16667C9.52381 5.35076 9.37457 5.5 9.19048 5.5H8.90476C8.72067 5.5 8.57143 5.35076 8.57143 5.16667V4.83333ZM10.8091 4.5C10.625 4.5 10.4757 4.64924 10.4757 4.83333V5.16667C10.4757 5.35076 10.625 5.5 10.8091 5.5H11.0948C11.2789 5.5 11.4281 5.35076 11.4281 5.16667V4.83333C11.4281 4.64924 11.2789 4.5 11.0948 4.5H10.8091ZM12.3807 4.83333C12.3807 4.64924 12.53 4.5 12.7141 4.5H12.9998C13.1839 4.5 13.3331 4.64924 13.3331 4.83333V5.16667C13.3331 5.35076 13.1839 5.5 12.9998 5.5H12.7141C12.53 5.5 12.3807 5.35076 12.3807 5.16667V4.83333ZM14.619 4.5C14.435 4.5 14.2857 4.64924 14.2857 4.83333V5.16667C14.2857 5.35076 14.435 5.5 14.619 5.5H14.9048C15.0889 5.5 15.2381 5.35076 15.2381 5.16667V4.83333C15.2381 4.64924 15.0889 4.5 14.9048 4.5H14.619ZM16.19 4.83333C16.19 4.64924 16.3392 4.5 16.5233 4.5H16.8091C16.9932 4.5 17.1424 4.64924 17.1424 4.83333V5.16667C17.1424 5.35076 16.9932 5.5 16.8091 5.5H16.5233C16.3392 5.5 16.19 5.35076 16.19 5.16667V4.83333ZM18.4283 4.5C18.2442 4.5 18.095 4.64924 18.095 4.83333V5.16667C18.095 5.35076 18.2442 5.5 18.4283 5.5H18.7141C18.8981 5.5 19.0474 5.35076 19.0474 5.16667V4.83333C19.0474 4.64924 18.8981 4.5 18.7141 4.5H18.4283ZM0.952148 10.8331C0.952148 10.649 1.10139 10.4998 1.28548 10.4998H1.5712C1.75529 10.4998 1.90453 10.649 1.90453 10.8331V11.1664C1.90453 11.3505 1.75529 11.4998 1.5712 11.4998H1.28548C1.10139 11.4998 0.952148 11.3505 0.952148 11.1664V10.8331ZM3.19076 10.4998C3.00666 10.4998 2.85742 10.649 2.85742 10.8331V11.1664C2.85742 11.3505 3.00666 11.4998 3.19076 11.4998H3.47647C3.66056 11.4998 3.8098 11.3505 3.8098 11.1664V10.8331C3.8098 10.649 3.66056 10.4998 3.47647 10.4998H3.19076ZM4.76172 10.8331C4.76172 10.649 4.91096 10.4998 5.09505 10.4998H5.38077C5.56486 10.4998 5.7141 10.649 5.7141 10.8331V11.1664C5.7141 11.3505 5.56486 11.4998 5.38077 11.4998H5.09505C4.91096 11.4998 4.76172 11.3505 4.76172 11.1664V10.8331ZM6.99935 10.4998C6.81525 10.4998 6.66602 10.649 6.66602 10.8331V11.1664C6.66602 11.3505 6.81525 11.4998 6.99935 11.4998H7.28506C7.46916 11.4998 7.6184 11.3505 7.6184 11.1664V10.8331C7.6184 10.649 7.46916 10.4998 7.28506 10.4998H6.99935ZM8.57129 10.8331C8.57129 10.649 8.72053 10.4998 8.90462 10.4998H9.19034C9.37443 10.4998 9.52367 10.649 9.52367 10.8331V11.1664C9.52367 11.3505 9.37443 11.4998 9.19034 11.4998H8.90462C8.72053 11.4998 8.57129 11.3505 8.57129 11.1664V10.8331ZM10.8089 10.4998C10.6248 10.4998 10.4756 10.649 10.4756 10.8331V11.1664C10.4756 11.3505 10.6248 11.4998 10.8089 11.4998H11.0946C11.2787 11.4998 11.428 11.3505 11.428 11.1664V10.8331C11.428 10.649 11.2787 10.4998 11.0946 10.4998H10.8089ZM12.3809 10.8331C12.3809 10.649 12.5301 10.4998 12.7142 10.4998H12.9999C13.184 10.4998 13.3332 10.649 13.3332 10.8331V11.1664C13.3332 11.3505 13.184 11.4998 12.9999 11.4998H12.7142C12.5301 11.4998 12.3809 11.3505 12.3809 11.1664V10.8331ZM14.6195 10.4998C14.4354 10.4998 14.2861 10.649 14.2861 10.8331V11.1664C14.2861 11.3505 14.4354 11.4998 14.6195 11.4998H14.9052C15.0893 11.4998 15.2385 11.3505 15.2385 11.1664V10.8331C15.2385 10.649 15.0893 10.4998 14.9052 10.4998H14.6195ZM16.1904 10.8331C16.1904 10.649 16.3397 10.4998 16.5238 10.4998H16.8095C16.9936 10.4998 17.1428 10.649 17.1428 10.8331V11.1664C17.1428 11.3505 16.9936 11.4998 16.8095 11.4998H16.5238C16.3397 11.4998 16.1904 11.3505 16.1904 11.1664V10.8331ZM18.4281 10.4998C18.244 10.4998 18.0947 10.649 18.0947 10.8331V11.1664C18.0947 11.3505 18.244 11.4998 18.4281 11.4998H18.7138C18.8979 11.4998 19.0471 11.3505 19.0471 11.1664V10.8331C19.0471 10.649 18.8979 10.4998 18.7138 10.4998H18.4281Z" fill="white" fill-opacity="0.5"/>
<mask id="path-6-inside-1" fill="white">
<path fill-rule="evenodd" clip-rule="evenodd" d="M9.03808 6.89062C8.75128 7.16497 8.57129 7.5603 8.57129 7.99977C8.57129 8.8282 9.21088 9.49977 9.99986 9.49977C10.7888 9.49977 11.4284 8.8282 11.4284 7.99977C11.4284 7.56859 11.2552 7.17991 10.9778 6.90629"/>
</mask>
<path d="M8.57726 6.40888C8.16053 6.8075 7.90462 7.37621 7.90462 7.99977H9.23796C9.23796 7.74439 9.34203 7.52244 9.49891 7.37237L8.57726 6.40888ZM7.90462 7.99977C7.90462 9.16536 8.81241 10.1664 9.99986 10.1664V8.8331C9.60935 8.8331 9.23796 8.49103 9.23796 7.99977H7.90462ZM9.99986 10.1664C11.1873 10.1664 12.0951 9.16536 12.0951 7.99977H10.7618C10.7618 8.49103 10.3904 8.8331 9.99986 8.8331V10.1664ZM12.0951 7.99977C12.0951 7.38798 11.8487 6.82899 11.4459 6.43165L10.5096 7.38092C10.6616 7.53083 10.7618 7.74921 10.7618 7.99977H12.0951Z" fill="#D80915" mask="url(#path-6-inside-1)"/>
<rect x="9.52344" y="7.5" width="0.952381" height="2" rx="0.47619" fill="#D80915"/>
</g>
</svg>
